src/assets/in-depo/Exhibits.svg

<?xml version="1.0" encoding="UTF-8"?>
<svg width="24px" height="24px" viewBox="0 0 24 24" version="1.1" xmlns="http://www.w3.org/2000/svg" xmlns:xlink="http://www.w3.org/1999/xlink">
    <title>Foundations/Icons/Exhibits@1x</title>
    <g id="💡-Icons" stroke="none" stroke-width="1" fill="none" fill-rule="evenodd">
        <g id="Foundations/Icons/Exhibits" fill="#14232E">
            <path d="M20.0666149,4.00006988 C20.7169784,4.00505702 21.3387151,4.26361735 21.7950402,4.71893835 C22.2513653,5.17425936 22.5048961,5.78904054 22.4999283,6.42802727 L22.4999283,6.42802727 L22.4999283,14.8000461 C22.4999283,16.1306552 21.4019783,17.2093271 20.0476792,17.2093271 L20.0476792,17.2093271 L19.659497,17.2093271 L19.659497,17.590719 C19.659497,18.9213282 18.5616207,20 17.2073217,20 L17.2073217,20 L3.9523197,20 C3.2986682,20 2.6720609,19.7436326 2.2116406,19.287773 C1.75122029,18.8319134 1.49509684,18.214313 1.50007112,17.5721145 L1.50007112,17.5721145 L1.50007112,9.20009572 C1.50007112,7.86948659 2.59802064,6.79081475 3.9523197,6.79081475 L3.9523197,6.79081475 L4.3405019,6.79081475 L4.3405019,6.40942278 C4.34048241,5.76720521 4.60143357,5.15155876 5.06540925,4.69919231 C5.52938492,4.24682585 6.15798097,3.9951826 6.81161298,4.00006988 L6.81161298,4.00006988 Z M4.3405019,7.90708392 L3.9523197,7.90708392 C3.59998049,7.90708392 3.26234057,8.04582663 3.01498502,8.29235216 C2.76762946,8.53887769 2.63121773,8.87256009 2.63615094,9.21870021 L2.63615094,9.21870021 L2.63615094,17.590719 C2.63615094,17.936895 2.77750021,18.2686288 3.02841484,18.5116575 C3.27932947,18.7546862 3.61895268,18.8887118 3.97125542,18.8837308 L3.97125542,18.8837308 L17.2262574,18.8837308 C17.953082,18.8837308 18.5422897,18.3048297 18.5422897,17.590719 L18.5422897,17.590719 L18.5422897,17.2093271 L6.79267726,17.2093271 C5.43837821,17.2093271 4.3405019,16.1306552 4.3405019,14.8000461 L4.3405019,14.8000461 L4.3405019,7.90708392 Z M20.0476792,5.11641099 L6.79267726,5.11641099 C6.44033805,5.11627696 6.10269813,5.25515369 5.85534258,5.50167922 C5.60798702,5.74820475 5.47157529,6.08188715 5.47650851,6.42802727 L5.47650851,6.42802727 L5.47650851,14.8000461 C5.47650851,15.146222 5.61785777,15.4779558 5.8687724,15.7209846 C6.11968703,15.9640133 6.45931024,16.0980388 6.81161298,16.0930579 L6.81161298,16.0930579 L20.0666149,16.0930579 C20.7934395,16.0930579 21.3826473,15.5141568 21.3826473,14.8000461 L21.3826473,14.8000461 L21.3826473,6.40942278 C21.3826473,6.06324683 21.2414344,5.73151303 20.9905198,5.48848432 C20.7396052,5.2454556 20.399982,5.11143004 20.0476792,5.11641099 L20.0476792,5.11641099 Z M18.9744526,11 C19.2647044,11 19.5,11.2238576 19.5,11.5 C19.5,11.7761424 19.2647044,12 18.9744526,12 L18.9744526,12 L8.02554742,12 C7.73529559,12 7.5,11.7761424 7.5,11.5 C7.5,11.2238576 7.73529559,11 8.02554742,11 L8.02554742,11 Z M16.9117647,8 C17.2366381,8 17.5,8.22385763 17.5,8.5 C17.5,8.77614237 17.2366381,9 16.9117647,9 L16.9117647,9 L8.08823529,9 C7.76336191,9 7.5,8.77614237 7.5,8.5 C7.5,8.22385763 7.76336191,8 8.08823529,8 L8.08823529,8 Z" id="Combined-Shape"></path>
        </g>
    </g>
</svg>

<svg width="24" height="24" viewBox="0 0 24 24" xmlns="http://www.w3.org/2000/svg"><path d="M20.067 4c.65.005 1.272.264 1.728.719.456.455.71 1.07.705 1.709V14.8c0 1.33-1.098 2.41-2.452 2.41h-.389v.38c0 1.331-1.097 2.41-2.452 2.41H3.952c-.653 0-1.28-.256-1.74-.712a2.388 2.388 0 01-.712-1.716V9.2c0-1.33 1.098-2.41 2.452-2.41h.389v-.38c0-.643.26-1.258.724-1.71A2.475 2.475 0 016.812 4zM4.34 7.907h-.389c-.352 0-.69.139-.937.385-.247.247-.384.58-.379.927v8.372c0 .346.142.678.392.92.251.244.591.378.943.373h13.255c.727 0 1.316-.58 1.316-1.293v-.382H6.792c-1.354 0-2.451-1.078-2.451-2.409V7.907zm15.707-2.79H6.793c-.353 0-.69.138-.938.385-.247.246-.383.58-.378.926V14.8c0 .346.14.678.392.921.25.243.59.377.943.372h13.255c.726 0 1.316-.579 1.316-1.293V6.41c0-.347-.142-.678-.392-.922a1.328 1.328 0 00-.943-.372zM18.974 11c.29 0 .526.224.526.5s-.235.5-.526.5H8.026a.513.513 0 01-.526-.5c0-.276.235-.5.526-.5zm-2.062-3c.325 0 .588.224.588.5s-.263.5-.588.5H8.088c-.325 0-.588-.224-.588-.5s.263-.5.588-.5z" fill="#14232E" fill-rule="evenodd"/></svg>
